X:105
T:Nora Criona
R:jig
D:Mary Bergin: Feadoga Stain
Z:id:hn-jig-105
M:6/8
K:G
G2A BAG|A2B cBA|dBd gdB|AdB cAF|G2A BAG|1 A2B cBA|dBd gdB|AGF G2D:|2 dcB ABd|
gaf gdB|A2B cBA|:dB/c/d gdB|ded dBc|dBd gdB|A2B cBA|1 dBd gdB|ded d2f|gfa gdB|
A2B cBA:|2 dB/c/d ec/d/e|fdf g2a|bge dBG|A2B cBA||

